X: 233
T: Speed the Plough
R: reel
M: C|
L: 1/8
Z: 2012 John Chambers <jc:trillian.mit.edu>
B: J. Anderson "Budget of Strathspeys, Reels and Country Dances" (Early 1800s) p.23 #3
F: http://imslp.org/wiki/Anderson%27s_Budget_of_Strathspeys,_Reels_and_Country_Dances_(Various)
K: G
D |\
GGGB (de).d.B | (dg).d.B de.d.B | (ce).c.A (Bd).B.G | (AE)(AG) FAAB |
(GA).G.B (de).d.B | (dg).d.B dedB | (cd).B.c (AB).G.A | EGFA G2G |]
d |\
.g.g.g.G .g.G.d.G | (gG).f.G (eG).d.G | .c.c.c.A .B.B.B.G | (AE).A.G (FA).A.d |
(B/A/G) (dG) gGdG | (ec).A.e (dB).G.d | (cd).B.c (AB).G.A | EGFA G2G |]

%%sep 2 1 500
%%sep 1 1 500

